X: 7
T: The Dawn
R: reel
M: 4/4
L: 1/8
K: Gmaj
G,2B,D C2EG|DFAF ~G3B|ADBD cDBG|(3ABc BA GEDB,|G,2B,D CEGE|D2FA ~G3d|edef gedc|BdAd BG~G2:||~g3d edBd|eaaf gfed|(3fed ad bdad|gbdg bdef|~g3d edBd|cdef g3e|~d2ge dBGB|cBAc BG G3:||


Tune 167	Setting 12804

